!!!COM: Anon.
!!!OCL: Francis James Child
!!!OPR: The English and Scottish Popular Ballads
!!!OVM: Vol. 1
!!!ONB: Ballad No. 25, Tune No. 2
!!!ONM: No. 25
!!!PDT: 1882
!!!YEM: Public domain.
**kern
*M4/4
{4d
=1
4g
8g
8g
4g
8a
8b
=2
4a
8a
8a
4}g
!! Second phrase:
{8b
8b
=3
4dd
4dd
4gg
8gg
8gg
=4
2ee
4dd}
!! Third phrase:
{4dd
=5
4gg
8dd
8dd
4ee
8dd
8b
=6
8cc
8b
8a
8g
4e}
!! Fourth phrase:
{4d
=7
4.g
16g
4g
8g
8a
8.b
16a
=8
2a
4g}
====
*-
!!!OCY: Britain; England
!!!PPP: Boston
!!!ODT: <1882
!!!AFR: folk song
!!!AST: monophony
!!!AMT: simple quadruple
!!!SCA: Child Collection
!!!AIN: vox
!!!EEV: 1.0
!!!RDT: 1987 June
!!!YER: 1994 August 10
!!!VTS: 652652838
